X: 1813
T: Arctic Winds, The
R: jig
M: 6/8
K: Dmajor
E|:FAG FAG|FDE FAd|BFF Bcd|BGB dcB|
AdG FAG|FDE FAd|BGB cde|1 f/g/ag fdG:|2 f/g/ag fde||
|:fed a2 A|def fed|ecA a2 A|cde ABc|
~B3 deg|fbb bfg|~f3 fed|1 cdA def:|2 cdA GFE||"Ending"|D6||

